X: 43444
T: Yann Falquet's
R: jig
M: 6/8
K: Gmajor
GBd|g2g fge-|edc BGB|A2G FGA-|AGA Bcd|
g2g fge-|edc BGB|A2G FAG-|G2G GBd|
g2g fge-|edc BGB|A2G FAF|EDE FAd|
g2g fge-|edc BGB|A2G FAG-|G2G GDE|
K:Gmix
|:F2F AFc-|cAF cFc|B2G e2d-|dcB AGE|
F2F AFc-|cAF cFc|B2G FAG-|1 G2G GDE:|2 G2G||

